X:115
T:The Morning Star
M:4/4
L:1/8
K:F
ABGA FAD(E|F2) Ac defd|cAGc A(FDE)|FAGE F3 G ||
AG (3GGG AGDF|F2 Ac dffd|cAGF AFDE|FAGE F4||
Acd(e f3) (g|e)c c2 acg(c|Ac)de f3 g|gece d3 c|
Acde f3 g|ec c2 acgc|Ac c2 c2 de|f3 f fedc|
A4 AFDE|FGAc dffd|cAGF AFDE|FAGE [F4A,4] |>|
